X:226
T: Die verkaufte Muellerin
N: Q0086Y
O: Mitteleuropa, Deutschland (BRD) , Rheinpfalz
R: Ballade, Menschenhandel, Rettung, Hinrichtung
M: 3/8
L: 1/16
K: G
 | G2G2Bd | d3BBB | B4A2 | A4z2
c2c2e2 | e4c2 | c4B2 | B4z2
d2d2d2 | B4B2 | A4c2 | B4z2

